X:28
T:Mr Young's Delight.
T:John Malchair's Third Collection of Tunes
C:Duplicate p84.
%%VWML:Malchair-3619-p28
F:https://www.vwml.org/record/Malchair/3619/p28
F:www.vwml.org/topics/historic-dance-and-tune-books/Malchair
Z:Eric Conrad Jan 2020
M:C|
L:1/8
K:F
c2 | A2F2 F2G2 | A4 d4 | c3d (cd)(cA) | B2 G4 B2 |
A2 F4 G2 | A4 d4 | f3g (fg)(ag) | f2 c4 f2 |
d3c (de)fd | (cd)(cB) (Ac)(fc) | (de)(fd) (cd)(cA) | B2G2 G2B2 |
A2 F4 G2 | A4 d4 | c3d (cd)(cA) | B2 G4 ||
(ag) | (fg)(af) (ga)(bg) | (ab)(ga) (fg)(ef) | (de)(fd) (ge)(dc) | G2 c4 B>A |
(Bd)(fd) (Ac)(fc) | (Bd)(fd) (Ac)(fc) | (dc)(BA) (GA)(GF) | F6 |]
W:
T:Mr Heath's Dance.
T:John Malchair's Third Collection of Tunes
F:https://www.vwml.org/record/Malchair/3619/p28
F:www.vwml.org/topics/historic-dance-and-tune-books/Malchair
M:C|
L:1/8
K:D
A2 | F2D2 D2F2 | A4 B4 | A2F2 (GF)(ED) | (CD)(EF) E2AG |
F2D2 D2F2 | A4 B4 | A2F2 (GF)(ED) | D6 ||
ef | e2c2 c2d2 | e4 a2e2 | e2fe d2ed | c6 c2 |
d2c2 B2A2 | ^G2A2 B2(cd) | e2(fe) (dc)(BA) | A6 A2 |
F2D2 D2F2 | A4 B4 | A2F2 (GF)(ED) | (CD)(EF) E2AG |
F2D2 D2F2 | A4 B4 | A2F2 (GF)(ED) | D6 |]

